X:163
T:Steirer
C:traditionell
R:Steirer
A:Bad Ischl, Salzkammergut
B:"Pfeifermusik aus Bad Ischl", Lois Blamberger, 3. Auflage, Bad Ischl 1990
S:im buch mit der Angabe: aus der Sammlung vom Blamberger Lois
N:im buch in D, nr. 6/1
Z:abc transcription Simon Wascher
M:3/4
L:1/8
K:D
V:1
(Ac) e3 c | (dfafba) | g2 (cg)(gc) | (df)(Af) d2 |\
(Ac) e3 c | (dfafba) | g2 (cg)(gc) | d4 z2 :|
V:2
(EA) c3 A | (FAfdgf) | e2 (Ec)(AG) | (Fd)(Ad) F2 |\
(EA) c3 A | (FAfdgf) | e2 (Ec)(AG) | F4 z2 :|
